X:1
T:The Seeds of Love
M:4/4
L:1/8
K:G
 G3 F|E-DB,-CD-FA-F| G6 Bc| d2 ABc-dd-B| A6|G-B| d2 dB c2B-A|
M:6/4
G-AB-G D4 G3 F|
M:4/4
E-DB,-CD-GG-B| B4-d-c AB| G2B,-CD-FA-F| G4||

